X: 191
%
U:~=!turn!
T: The Futterat wi' the Grey Tail
C:
O:Scotland
B:Keith Norman MacDonald : "The Skye collection of the best reels & strathspeys extant" : 1887
Z:Ralph Palmer
R:Strathspey
M:C|
L:1/8
K:A minor
B |: A<ee>d eAAB | d>cB>A GEEG | D>EGA TB>ABg | G/G/G BG {AB}c2 B>A :|
Aaa^g aee^f | gage gddg | edeg abag | {ef}g2 dB {AB}c2 B>A |
Aaa^g aee^f | gage gddg | e>deg ageg | dBGB {AB}c2 B>A |]


